dist/images/favicon/favicon.svg

<svg width="512" height="512" fill="none" xmlns="http://www.w3.org/2000/svg"><path d="M32.816 183.144h29.13v59.174h64.235v-59.174h29.13v145.771h-29.13v-60.124H61.946v60.124h-29.13V183.144Z" fill="#685DC3"/><path fill-rule="evenodd" clip-rule="evenodd" d="M251.687 331.294c41.512 0 75.165-30.466 75.165-75.294 0-44.828-33.653-75.294-75.165-75.294-41.512 0-75.165 28.84-75.165 75.294 0 46.454 33.653 75.294 75.165 75.294Zm-.059-26.951c25.275 0 45.107-19.561 45.107-48.342 0-28.782-19.832-48.342-45.107-48.342s-45.256 18.516-45.256 48.342c0 29.825 19.981 48.342 45.256 48.342Z" fill="#685DC3"/><path d="M479.181 286c-10.788 27.877-36.565 45.294-66.647 45.294-39.788 0-72.047-28.841-72.047-75.294 0-46.453 32.259-75.294 72.047-75.294 29.588 0 55.012 16.844 66.106 43.915l-28.341 5.197c-7.494-13.812-21.036-22.159-36.788-22.159-24.118 0-43.177 18.518-43.177 48.341 0 29.827 19.059 48.341 43.177 48.341 16.023 0 29.741-8.629 37.152-22.861l28.518 4.52Z" fill="#685DC3"/></svg>

<svg width="512" height="512" viewBox="0 0 512 512" fill="none" xmlns="http://www.w3.org/2000/svg">
<path d="M32.8164 183.144H61.9458V242.318H126.181V183.144H155.311V328.915H126.181V268.791H61.9458V328.915H32.8164V183.144Z" fill="#685DC3"/>
<path fill-rule="evenodd" clip-rule="evenodd" d="M251.687 331.294C293.199 331.294 326.852 300.828 326.852 256C326.852 211.172 293.199 180.706 251.687 180.706C210.175 180.706 176.522 209.546 176.522 256C176.522 302.454 210.175 331.294 251.687 331.294ZM251.628 304.343C276.903 304.343 296.735 284.782 296.735 256.001C296.735 227.219 276.903 207.659 251.628 207.659C226.353 207.659 206.372 226.175 206.372 256.001C206.372 285.826 226.353 304.343 251.628 304.343Z" fill="#685DC3"/>
<path d="M479.181 286C468.393 313.877 442.616 331.294 412.534 331.294C372.746 331.294 340.487 302.453 340.487 256C340.487 209.547 372.746 180.706 412.534 180.706C442.122 180.706 467.546 197.55 478.64 224.621L450.299 229.818C442.805 216.006 429.263 207.659 413.511 207.659C389.393 207.659 370.334 226.177 370.334 256C370.334 285.827 389.393 304.341 413.511 304.341C429.534 304.341 443.252 295.712 450.663 281.48L479.181 286Z" fill="#685DC3"/>
</svg>
